resources/svg/minor-inactive-location.svg

<svg xmlns="http://www.w3.org/2000/svg" viewBox="0 0 20 20" fill="currentColor"><path d="M17.7072 3.70715C17.3167 3.31663 16.6835 3.31663 16.293 3.70715L15.0516 4.94856L12.0001 7.99981L10.0001 10L5.83117 14.1688L3.7072 16.2929C3.31668 16.6835 3.31668 17.3166 3.7072 17.7072C4.09772 18.0977 4.73089 18.0977 5.12141 17.7072L7.08626 15.7423C8.34133 17.0924 9.52506 17.8261 9.63012 17.89C9.74012 17.96 9.87012 18 10.0001 18C10.1301 18 10.2601 17.96 10.3701 17.89C10.6001 17.75 16.0001 14.4 16.0001 8.4C16.0001 7.91128 15.9486 7.4352 15.8509 6.97764L17.7072 5.12137C18.0977 4.73084 18.0977 4.09768 17.7072 3.70715Z" fill="#5C5F62"/><path d="M10.0001 2C11.4219 2 12.7292 2.5295 13.7581 3.41337L10.937 6.23452C10.6571 6.08494 10.338 6 10.0001 6C8.90012 6 8.00012 6.9 8.00012 8C8.00012 8.33793 8.08506 8.65698 8.23464 8.93687L4.82609 12.3454C4.32821 11.1969 4.00012 9.87894 4.00012 8.4C4.00012 4.87 6.69012 2 10.0001 2Z" fill="#5C5F62"/></svg>

<svg xmlns="http://www.w3.org/2000/svg" viewBox="0 0 20 20" fill="currentColor"><path d="M17.707 3.707a1 1 0 0 0-1.414 0l-1.241 1.242-3.052 3.05-2 2.001-4.169 4.169-2.124 2.124a1 1 0 0 0 1.414 1.414l1.965-1.965c1.255 1.35 2.44 2.084 2.544 2.148.11.07.24.11.37.11s.26-.04.37-.11c.23-.14 5.63-3.49 5.63-9.49 0-.489-.051-.965-.15-1.422l1.857-1.857a1 1 0 0 0 0-1.414Z"/><path d="M10 2c1.422 0 2.73.53 3.758 1.413l-2.821 2.822a1.983 1.983 0 0 0-.937-.235c-1.1 0-2 .9-2 2 0 .338.085.657.235.937l-3.409 3.408a9.846 9.846 0 0 1-.826-3.945c0-3.53 2.69-6.4 6-6.4Z"/></svg>
